!!!id: bhatk3185a
!!!vol: 3
!!!page: 185
!!!antara: Vadi gandhar kare
!!!raag: bihag
!!!taal: teental
!!!tempo: madhyalaya
**kern
!!data: // >PG  M  G  M/  P  -  N  N/  S'  -  S'  S'/  S'  R'  S'  S'/
==1
gq
4e
4f
4e
4f
=
2g
4b
4b
=
2cc
4cc
4cc
=
4cc
4dd
4cc
4cc
!!data: // >PS'  -  %S'  -/  [N  -  P]  P/  >mP  -  S'  -/  [N  -  P]  P/
==2
gq
2cc
2ccS
=
2bH
4gh
4g
=
f#q
2g
2cc
=
2bH
4gh
4g
!!data: // >PG  M  G  M/  P  -  N  N/  NS'  G'  >R'N  S'/  N  >DN  %P/
==3
gq
4e
4f
4e
4f
=
2g
4b
4b
=
8b
8cc
4ee
ddq
4b
4cc
=
4b
aq
4b
4gS
!!data: // >mP  -  G  M/  P  P  >PG  M/  G  -  -  -/  S  -  -  S/   
==4
f#q
2g
4e
4f
=
4g
4g
gq
4e
4f
=
1e
=
2.c
4c
==
*-
